assets/images/about/logo-3.svg

<svg width="49" height="96" viewBox="0 0 49 96" fill="none" xmlns="http://www.w3.org/2000/svg">
<path fill-rule="evenodd" clip-rule="evenodd" d="M0 95.5118V88.3827H5.2406V89.563H1.46359V91.121H5.00454V92.3013H1.46359V94.2371H5.42945V95.4174H0V95.5118ZM6.60977 95.5118V88.3827H9.63138C10.3868 88.3827 10.9533 88.4299 11.2838 88.5715C11.6143 88.7132 11.8976 88.9492 12.1336 89.2325C12.3225 89.563 12.4641 89.9407 12.4641 90.3656C12.4641 90.885 12.3225 91.3571 11.992 91.6876C11.6615 92.0181 11.1894 92.2541 10.5756 92.3486C10.9061 92.5374 11.1422 92.7263 11.331 92.9623C11.5199 93.1984 11.8032 93.5761 12.1336 94.1426L12.9835 95.5118H11.2838L10.2451 93.9538C9.86744 93.3872 9.63138 93.0567 9.48974 92.9151C9.3481 92.7735 9.20646 92.679 9.06482 92.6318C8.92319 92.5846 8.68712 92.5374 8.35664 92.5374H8.07336V95.5118H6.60977ZM8.07336 91.4043H9.11204C9.82023 91.4043 10.2451 91.3571 10.3868 91.3099C10.5756 91.2627 10.6701 91.1682 10.8117 91.0266C10.9061 90.885 10.9533 90.6961 10.9533 90.5073C10.9533 90.2712 10.9061 90.0823 10.7645 89.9407C10.6228 89.7991 10.434 89.7046 10.2451 89.6574C10.1507 89.6574 9.77301 89.6102 9.20646 89.6102H8.07336V91.4043ZM17.091 92.9151V91.7348H20.1598V94.5675C19.8765 94.8508 19.4044 95.1341 18.8378 95.3229C18.2713 95.559 17.7047 95.6534 17.091 95.6534C16.3356 95.6534 15.7218 95.5118 15.1553 95.1813C14.5887 94.8508 14.211 94.4259 13.9277 93.8594C13.6444 93.2928 13.5028 92.6318 13.5028 91.9709C13.5028 91.2155 13.6444 90.5545 13.9749 89.9879C14.3054 89.4214 14.7303 88.9492 15.3441 88.666C15.8162 88.4299 16.3828 88.2883 17.0438 88.2883C17.9408 88.2883 18.6018 88.4771 19.1211 88.8548C19.5932 89.2325 19.9237 89.7519 20.0654 90.4128L18.649 90.6961C18.5546 90.3656 18.3657 90.0824 18.0824 89.8463C17.7992 89.6574 17.4687 89.563 17.0438 89.563C16.43 89.563 15.9107 89.7519 15.533 90.1768C15.1553 90.5545 14.9664 91.1682 14.9664 91.9709C14.9664 92.8207 15.1553 93.4344 15.533 93.8594C15.9107 94.2843 16.3828 94.4731 16.9965 94.4731C17.2798 94.4731 17.6103 94.4259 17.8936 94.2843C18.1769 94.1898 18.4601 94.001 18.649 93.8594V92.9623H17.091V92.9151ZM21.529 88.4299H22.9453V92.3013C22.9453 92.9151 22.9453 93.2928 22.9925 93.4817C23.0398 93.7649 23.1814 94.001 23.4175 94.1898C23.6535 94.3787 23.9368 94.4731 24.3617 94.4731C24.7866 94.4731 25.0699 94.3787 25.2588 94.2371C25.4476 94.0482 25.5892 93.8594 25.6365 93.6233C25.6837 93.3872 25.6837 92.9623 25.6837 92.3958V88.4771H27.1473V92.2069C27.1473 93.0567 27.1 93.6705 27.0528 94.001C26.9584 94.3315 26.8168 94.662 26.6279 94.898C26.4391 95.1341 26.1558 95.3229 25.7781 95.4646C25.4476 95.6062 24.9755 95.7006 24.4089 95.7006C23.7479 95.7006 23.2286 95.6062 22.8509 95.4646C22.5204 95.3229 22.2371 95.0869 22.0011 94.8508C21.8122 94.6148 21.6706 94.3315 21.6234 94.0482C21.529 93.6233 21.4817 93.0567 21.4817 92.2541V88.4299H21.529ZM35.079 95.5118H33.521L32.9072 93.9066H30.0744L29.5079 95.5118H27.9971L30.7354 88.3827H32.2462L35.079 95.5118ZM32.4351 92.7263L31.4436 90.0824L30.4994 92.7263H32.4351ZM35.8344 95.5118V88.3827H38.856C39.6114 88.3827 40.1779 88.4299 40.5084 88.5715C40.8389 88.7132 41.1222 88.9492 41.3583 89.2325C41.5471 89.563 41.6887 89.9407 41.6887 90.3656C41.6887 90.885 41.5471 91.3571 41.2166 91.6876C40.8861 92.0181 40.414 92.2541 39.8002 92.3486C40.1307 92.5374 40.3668 92.7263 40.5556 92.9623C40.7445 93.1984 41.0278 93.5761 41.3583 94.1426L42.2081 95.5118H40.5084L39.4698 93.9538C39.0921 93.3872 38.856 93.0567 38.7144 92.9151C38.5727 92.7735 38.4311 92.679 38.2894 92.6318C38.1478 92.5846 37.9117 92.5374 37.5812 92.5374H37.298V95.5118H35.8344ZM37.298 91.4043H38.3367C39.0448 91.4043 39.4698 91.3571 39.6114 91.3099C39.8002 91.2627 39.8947 91.1682 40.0363 91.0266C40.1307 90.885 40.1779 90.6961 40.1779 90.5073C40.1779 90.2712 40.1307 90.0823 39.9891 89.9407C39.8475 89.7991 39.6586 89.7046 39.4698 89.6574C39.3753 89.6574 38.9976 89.6102 38.4311 89.6102H37.298V91.4043ZM43.0107 88.4299H45.6074C46.1739 88.4299 46.6461 88.4771 46.9766 88.5715C47.4015 88.7132 47.732 88.902 48.0625 89.2325C48.3457 89.563 48.5818 89.9407 48.7234 90.3656C48.8651 90.8377 48.9595 91.3571 48.9595 92.0653C48.9595 92.6318 48.8651 93.1512 48.7234 93.5761C48.5346 94.0954 48.2985 94.5203 47.968 94.8508C47.732 95.0869 47.4015 95.2757 46.9766 95.4174C46.6461 95.5118 46.2212 95.559 45.7018 95.559H43.0107V88.4299ZM44.4743 89.6102V94.3315H45.5602C45.9379 94.3315 46.2684 94.3315 46.41 94.2843C46.6461 94.2371 46.8349 94.1426 46.9766 94.001C47.1182 93.8594 47.2598 93.6233 47.3543 93.2928C47.4487 92.9623 47.4959 92.5374 47.4959 91.9709C47.4959 91.4043 47.4487 90.9794 47.3543 90.6961C47.2598 90.4128 47.1182 90.1768 46.9293 89.9879C46.7405 89.8463 46.5516 89.7046 46.2684 89.6574C46.0795 89.6102 45.6546 89.6102 45.0881 89.6102H44.4743Z" fill="#313131"/>
<path fill-rule="evenodd" clip-rule="evenodd" d="M12.8419 1.08698C12.7474 3.35318 12.653 5.61939 12.5586 7.83838C11.095 8.97148 9.5842 10.0574 8.12061 11.1905C8.12061 13.5983 8.12061 16.0062 8.12061 18.4612C9.63141 17.9891 11.1422 17.9891 12.653 17.9891C12.8891 23.6074 13.0307 29.2729 13.2196 34.8912C13.314 35.5994 13.3612 36.3548 13.4556 37.063C12.9363 37.5823 12.8891 38.0072 11.8504 38.6682C10.7173 39.282 10.434 39.2348 10.1507 40.6984C10.2924 42.4452 10.2924 42.5869 11.5199 43.5311C12.3697 43.7672 12.7474 43.956 13.5973 43.5783C14.1166 56.7034 14.5887 69.7813 15.1081 82.9065C15.3441 82.8592 15.533 82.7648 15.7691 82.7176C15.7691 82.5287 15.7691 82.3399 15.7691 82.151C15.7691 81.9622 15.7691 81.7261 15.7691 81.5373C15.7691 81.1596 15.7691 80.8291 15.7218 80.4514C15.3913 68.0817 15.0609 55.712 14.7304 43.3423C15.533 42.8229 16.194 42.3036 16.9494 41.6898C17.6103 44.1921 17.7992 46.4583 17.8464 49.1022C17.6576 49.952 17.4687 50.8491 17.2799 51.6989C16.9022 54.154 16.6189 56.5146 16.5245 58.9697C16.4772 59.5362 16.43 60.15 16.43 60.7165C16.6661 60.7165 16.9022 60.7165 17.1382 60.7165C17.4215 62.5578 17.6576 64.3991 17.7992 66.2404C17.091 69.6397 17.5159 72.4252 17.9408 75.7301L18.4602 80.0737C18.5546 80.7819 16.9966 81.5845 17.0438 82.1038C17.0438 82.6704 17.988 83.0009 18.4602 83.1425C19.0267 83.1897 18.9795 83.3314 20.207 83.0481C21.6234 82.7176 21.6234 82.4815 21.4818 81.4429C21.3874 80.8291 21.1985 80.7347 21.1513 79.8848C21.1041 78.7045 21.2457 76.8632 21.2929 75.8246C21.4818 73.7 21.9539 71.7171 22.2372 69.5925C22.2844 68.5538 22.3788 67.8456 22.1428 66.8542C22.2372 66.382 22.3788 65.9571 22.4732 65.485C22.6621 64.588 22.8037 63.6909 22.8982 62.7939C22.9454 62.369 22.9454 61.9913 22.9926 61.5663C23.2759 61.5663 23.5591 61.6136 23.8424 61.6136C23.8896 62.8411 23.984 63.8326 24.2673 65.0129C24.409 65.6266 24.5506 66.2876 24.6922 66.9014C24.645 67.3735 24.645 67.8456 24.5978 68.3177C24.5506 68.8371 24.5034 69.3092 24.5034 69.8286C24.5506 70.4423 24.6922 71.0089 24.7867 71.5754C24.9283 72.3308 25.0699 73.0862 25.2116 73.8416C25.5421 75.4941 25.7781 79.6488 25.6837 80.4514C25.5893 80.8291 25.3532 81.1124 25.2588 81.5373C25.2116 81.8206 25.2116 82.0094 25.2588 82.2455C25.3532 82.6232 25.7781 82.812 26.3447 82.8592C27.4778 83.0009 27.1473 83.0009 28.3276 82.9537C28.6581 82.9537 29.1302 82.8592 29.4135 82.576C29.6024 82.3871 29.8856 81.915 29.744 81.6789C29.3663 81.0652 28.7053 80.7347 28.186 80.3098C28.186 80.3098 28.186 79.696 28.2332 79.6016C28.3276 79.1767 28.9414 75.8246 28.9886 75.258C29.3191 74.0777 29.3663 72.8502 29.5079 71.6698C29.6024 69.9702 29.5079 68.9315 29.0358 67.4207C29.1302 65.2961 29.1774 63.266 29.4135 61.2359L30.4522 65.1545L31.1604 66.5709L31.8686 67.8928L32.0102 66.6181L32.1046 65.2017L30.5938 57.1756C31.0659 57.4116 31.4909 57.6005 31.963 57.8365C34.0403 55.2399 35.6456 52.6904 35.9288 49.1022C36.1177 45.3252 35.9761 41.501 35.5511 37.7712C35.5039 37.1574 35.4567 36.5909 35.4095 35.9771L32.3879 36.4964C31.963 35.1745 31.4909 34.2302 29.744 33.286C28.6109 32.6722 27.5722 32.3417 26.2503 31.964C26.203 32.5778 26.7224 29.1785 26.7224 27.7149C26.4391 26.5346 26.0142 25.4487 25.4476 24.3156C23.9368 24.1739 22.4732 24.0795 20.9152 24.3156C20.4903 25.4959 20.0182 26.5346 19.6405 27.8093C19.7821 29.3201 20.1126 30.6893 20.3015 32.1529C19.4516 32.4834 18.4602 32.625 17.6576 33.0499C16.3828 33.6165 15.533 34.4191 14.4471 35.3633C14.1638 29.5562 13.9278 23.7962 13.6917 17.9891C15.7691 18.3668 17.752 18.8389 19.8293 19.4055C21.8123 20.0665 23.7952 20.7746 25.7309 21.5773C28.8942 22.4743 31.5381 23.0408 34.7485 22.8992C38.9032 22.2854 35.6928 22.2854 37.0619 19.4055C38.195 18.6029 39.517 18.2252 40.839 17.1393C38.8088 16.2422 37.8173 15.8645 39.2809 13.3623C39.8003 12.418 40.3196 11.4738 40.839 10.5767C39.7531 11.1433 38.6672 11.757 37.5813 12.3236C36.4482 12.8429 35.7872 13.1262 34.6069 13.1734C32.2463 13.3623 32.4823 13.1262 32.7184 15.8173C30.3105 15.7701 28.4692 15.2036 26.1558 14.4954C23.8424 13.5983 21.4818 12.7485 19.1684 11.8515C17.2326 11.3321 15.533 10.86 13.5028 10.86C13.3612 8.12166 13.4556 5.2889 13.0779 2.59778C12.9835 2.12565 12.8891 1.60631 12.8419 1.08698Z" fill="#313131"/>
<path fill-rule="evenodd" clip-rule="evenodd" d="M2.87958 84.605H46.1263C46.1736 84.605 46.2208 84.6522 46.2208 84.6994V85.5493C46.2208 85.5965 46.1736 85.6437 46.1263 85.6437H2.87958C2.83237 85.6437 2.78516 85.5965 2.78516 85.5493V84.6994C2.78516 84.605 2.83237 84.605 2.87958 84.605Z" fill="#313131"/>
<path fill-rule="evenodd" clip-rule="evenodd" d="M44.5681 0C43.7655 0 43.0573 0.330488 42.4908 0.849827C41.9242 1.46359 41.5938 2.12457 41.5938 3.02161C41.5938 3.82422 41.9242 4.4852 42.4908 5.05175C43.0573 5.66552 43.7655 5.90158 44.5681 5.90158C45.3708 5.90158 46.1262 5.66552 46.6927 5.05175C47.2593 4.4852 47.5425 3.77701 47.5425 3.02161C47.5425 2.17178 47.2593 1.46359 46.6927 0.849827C46.1262 0.330488 45.418 0 44.5681 0ZM42.8685 1.27474C43.3406 0.849827 43.9544 0.566552 44.5681 0.566552C45.2291 0.566552 45.8429 0.849827 46.2678 1.27474C46.7399 1.79408 46.976 2.31342 46.976 3.02161C46.976 3.68259 46.7399 4.29635 46.2678 4.72126C45.7957 5.19339 45.1819 5.42945 44.5681 5.42945C43.9072 5.42945 43.2934 5.19339 42.8685 4.72126C42.3964 4.29635 42.1603 3.68259 42.2075 3.02161C42.1603 2.31342 42.3964 1.74687 42.8685 1.27474Z" fill="#313131"/>
<path fill-rule="evenodd" clip-rule="evenodd" d="M43.3887 4.48516V1.69962H44.569C44.8523 1.69962 45.0883 1.74683 45.23 1.79404C45.3716 1.84125 45.466 1.93568 45.5605 2.07732C45.6549 2.21895 45.7021 2.36059 45.7021 2.50223C45.7021 2.69108 45.6549 2.87993 45.5132 3.02157C45.3716 3.16321 45.23 3.25763 44.9467 3.25763C45.0883 3.30484 45.1828 3.39927 45.23 3.4937C45.3244 3.58812 45.4188 3.72976 45.5605 3.96582L45.8909 4.48516H45.23L44.8051 3.8714C44.6634 3.63533 44.569 3.54091 44.5218 3.44648C44.4746 3.39927 44.4273 3.35206 44.3329 3.35206C44.2857 3.35206 44.1913 3.30484 44.0496 3.30484H43.9552V4.48516H43.3887ZM43.9552 2.87993H44.3801C44.6634 2.87993 44.805 2.87993 44.8995 2.83272C44.9467 2.78551 45.0411 2.78551 45.0411 2.73829C45.0883 2.69108 45.0883 2.59666 45.0883 2.54944C45.0883 2.45502 45.0411 2.36059 44.9939 2.31338C44.9467 2.26617 44.8523 2.21895 44.8051 2.21895C44.7578 2.21895 44.6162 2.21895 44.3801 2.21895H43.9552V2.87993Z" fill="#313131"/>
</svg>

<svg width="49" height="96" fill="none" xmlns="http://www.w3.org/2000/svg"><path fill-rule="evenodd" clip-rule="evenodd" d="M0 95.512v-7.13h5.24v1.181H1.465v1.558h3.54v1.18h-3.54v1.936H5.43v1.18H0v.095zm6.61 0v-7.13h3.02c.756 0 1.322.048 1.653.19.33.141.614.377.85.66.188.331.33.709.33 1.134 0 .519-.142.991-.472 1.322-.33.33-.803.566-1.416.66.33.19.566.378.755.614.189.236.472.614.803 1.18l.85 1.37h-1.7l-1.039-1.558c-.378-.567-.614-.897-.755-1.039a1.115 1.115 0 00-.425-.283 2.3 2.3 0 00-.708-.095h-.284v2.975H6.61zm1.463-4.108h1.039c.708 0 1.133-.047 1.275-.094.189-.047.283-.142.425-.283a.952.952 0 00.141-.52c0-.236-.047-.425-.188-.566a1.126 1.126 0 00-.52-.284c-.094 0-.472-.047-1.039-.047H8.073v1.794zm9.018 1.511v-1.18h3.069v2.832c-.284.284-.756.567-1.322.756a4.42 4.42 0 01-1.747.33c-.755 0-1.37-.141-1.936-.472a3.015 3.015 0 01-1.227-1.322 4.26 4.26 0 01-.425-1.888c0-.755.141-1.416.472-1.983.33-.567.755-1.039 1.37-1.322a3.762 3.762 0 011.699-.378c.897 0 1.558.19 2.077.567.472.377.803.897.944 1.558l-1.416.283a1.698 1.698 0 00-.567-.85c-.283-.189-.613-.283-1.038-.283-.614 0-1.133.189-1.511.614-.378.377-.567.991-.567 1.794 0 .85.19 1.463.567 1.888.378.425.85.614 1.464.614.283 0 .613-.047.897-.189.283-.094.566-.283.755-.425v-.897h-1.558v-.047zm4.438-4.485h1.416v3.87c0 .614 0 .992.047 1.18.048.284.19.52.425.709.236.189.52.283.945.283.425 0 .708-.094.897-.236.189-.189.33-.378.378-.614.047-.236.047-.66.047-1.227v-3.919h1.463v3.73c0 .85-.047 1.464-.094 1.794-.095.33-.236.661-.425.897s-.472.425-.85.567c-.33.141-.802.236-1.37.236-.66 0-1.18-.095-1.557-.236-.33-.142-.614-.378-.85-.614a1.795 1.795 0 01-.378-.803c-.094-.425-.141-.991-.141-1.794V88.43h.047zm13.55 7.082h-1.558l-.614-1.605h-2.833l-.566 1.605h-1.51l2.737-7.13h1.511l2.833 7.13zm-2.644-2.786l-.991-2.644-.945 2.644h1.936zm3.4 2.786v-7.13h3.021c.755 0 1.322.048 1.652.19.33.141.614.377.85.66.19.331.33.709.33 1.134 0 .519-.14.991-.471 1.322-.33.33-.803.566-1.417.66.33.19.567.378.756.614.189.236.472.614.802 1.18l.85 1.37h-1.7l-1.038-1.558c-.378-.567-.614-.897-.756-1.039a1.115 1.115 0 00-.425-.283 2.3 2.3 0 00-.708-.095h-.283v2.975h-1.464zm1.463-4.108h1.039c.708 0 1.133-.047 1.274-.094.19-.047.284-.142.425-.283a.952.952 0 00.142-.52c0-.236-.047-.425-.189-.566a1.126 1.126 0 00-.52-.284c-.094 0-.471-.047-1.038-.047h-1.133v1.794zm5.713-2.974h2.596c.567 0 1.04.047 1.37.141a2.6 2.6 0 011.086.662c.283.33.519.708.66 1.133.142.472.236.991.236 1.7a4.83 4.83 0 01-.236 1.51c-.188.52-.425.944-.755 1.275-.236.236-.567.425-.991.566-.33.095-.756.142-1.275.142H43.01v-7.13zm1.463 1.18v4.722h1.086c.378 0 .708 0 .85-.048.236-.047.425-.141.567-.283.141-.142.283-.378.377-.708.095-.33.142-.756.142-1.322 0-.567-.047-.992-.142-1.275a1.778 1.778 0 00-.425-.708c-.189-.142-.377-.283-.66-.33-.19-.048-.614-.048-1.18-.048h-.615zM12.842 1.087l-.283 6.751c-1.464 1.133-2.975 2.22-4.438 3.353v7.27c1.51-.472 3.021-.472 4.532-.472.236 5.618.378 11.284.567 16.902.094.708.141 1.464.236 2.172-.52.52-.567.944-1.606 1.605-1.133.614-1.416.567-1.7 2.03.142 1.747.142 1.889 1.37 2.833.85.236 1.227.425 2.077.047.52 13.125.992 26.203 1.511 39.328.236-.047.425-.141.661-.188v-1.181c0-.377 0-.708-.047-1.086l-.992-37.109c.803-.52 1.464-1.038 2.22-1.652.66 2.502.85 4.768.896 7.412-.188.85-.377 1.747-.566 2.597-.378 2.455-.661 4.816-.756 7.27a21.773 21.773 0 00-.094 1.748h.708c.284 1.84.52 3.682.661 5.523-.708 3.4-.283 6.185.142 9.49l.52 4.344c.094.708-1.464 1.51-1.417 2.03 0 .566.944.897 1.416 1.038.567.048.52.19 1.747-.094 1.416-.33 1.416-.567 1.275-1.605-.095-.614-.284-.708-.33-1.558-.048-1.18.094-3.022.14-4.06.19-2.125.662-4.108.945-6.233.047-1.038.142-1.746-.094-2.738.094-.472.236-.897.33-1.369.19-.897.33-1.794.425-2.691.047-.425.047-.803.095-1.228.283 0 .566.048.85.048.047 1.227.141 2.219.424 3.399.142.614.284 1.275.425 1.888-.047.473-.047.945-.094 1.417-.047.52-.095.991-.095 1.51.048.614.19 1.18.284 1.747l.425 2.267c.33 1.652.566 5.807.472 6.61-.095.377-.33.66-.425 1.085a1.784 1.784 0 000 .709c.094.377.52.566 1.086.613 1.133.142.802.142 1.983.095.33 0 .802-.095 1.085-.378.19-.189.473-.661.331-.897-.378-.614-1.039-.944-1.558-1.37 0 0 0-.613.047-.707.095-.425.708-3.777.756-4.344.33-1.18.377-2.408.519-3.588.094-1.7 0-2.739-.472-4.25.094-2.124.141-4.154.377-6.184l1.04 3.919.707 1.416.709 1.322.141-1.275.095-1.416-1.511-8.026c.472.236.897.424 1.369.66 2.077-2.596 3.683-5.146 3.966-8.734a69.766 69.766 0 00-.378-11.33c-.047-.615-.094-1.181-.142-1.795l-3.021.52c-.425-1.322-.897-2.267-2.644-3.211-1.133-.614-2.172-.944-3.494-1.322-.047.614.472-2.785.472-4.25-.283-1.18-.708-2.265-1.274-3.398-1.511-.142-2.975-.236-4.533 0-.425 1.18-.897 2.219-1.274 3.493.141 1.511.472 2.88.66 4.344-.85.33-1.84.472-2.643.897-1.275.567-2.125 1.37-3.21 2.313-.284-5.807-.52-11.567-.756-17.374 2.077.378 4.06.85 6.137 1.416 1.983.662 3.966 1.37 5.902 2.172 3.163.897 5.807 1.464 9.017 1.322 4.155-.614.945-.614 2.314-3.494 1.133-.802 2.455-1.18 3.777-2.266-2.03-.897-3.022-1.274-1.558-3.777.52-.944 1.039-1.888 1.558-2.785-1.086.566-2.172 1.18-3.258 1.747-1.133.519-1.794.802-2.974.85-2.36.188-2.125-.048-1.889 2.643-2.408-.047-4.249-.613-6.562-1.322-2.314-.897-4.674-1.746-6.988-2.643-1.935-.52-3.635-.992-5.665-.992-.142-2.738-.047-5.571-.425-8.262a14.46 14.46 0 01-.236-1.511zM2.88 84.605h43.246c.048 0 .095.047.095.094v.85a.102.102 0 01-.095.095H2.88a.102.102 0 01-.095-.095v-.85c0-.094.047-.094.095-.094zM44.568 0c-.802 0-1.51.33-2.077.85-.567.614-.897 1.275-.897 2.172 0 .802.33 1.463.897 2.03.566.614 1.275.85 2.077.85.803 0 1.558-.236 2.125-.85.566-.567.85-1.275.85-2.03a3.07 3.07 0 00-.85-2.172C46.126.33 45.418 0 44.568 0zm-1.7 1.275c.473-.425 1.086-.708 1.7-.708a2.43 2.43 0 011.7.708c.472.52.708 1.038.708 1.747 0 .66-.236 1.274-.708 1.7a2.396 2.396 0 01-1.7.707c-.66 0-1.275-.236-1.7-.708-.472-.425-.708-1.038-.66-1.7-.048-.708.188-1.274.66-1.746z" fill="#313131"/><path fill-rule="evenodd" clip-rule="evenodd" d="M43.389 4.485V1.7h1.18c.283 0 .52.047.661.094.142.047.236.142.33.283a.762.762 0 01.142.425c0 .19-.047.378-.189.52a.707.707 0 01-.566.236.484.484 0 01.283.236c.094.094.189.236.33.472l.33.52h-.66l-.425-.615c-.142-.236-.236-.33-.283-.425-.047-.047-.095-.094-.19-.094-.046 0-.14-.047-.282-.047h-.095v1.18h-.566zm.566-1.605h.425c.283 0 .425 0 .52-.047.047-.047.141-.047.141-.095.047-.047.047-.141.047-.189a.36.36 0 00-.094-.236.358.358 0 00-.189-.094h-.85v.66z" fill="#313131"/></svg>
